X: 4159
T: COLHER'S REEL
%R: reel
B: James Kerr "Merry Melodies" v.4 p.19 #159
Z: 2016 John Chambers <jc:trillian.mit.edu>
M: C|
L: 1/8
K: D
|:\
(DE)FG A4 | GE=cE GEcE |\
DEFG ABAG | EG=cE (ED)D2 :|\
d2(dA) dfed | =cdef g2(ge) |
dA A/A/A (df)ed | cAGE (E2{FE}D2) |\
Addc dfed | =cdef g2(fg) |\
afge dfed | cAGE (E2{FE}D2) |]

%%sep 1 1 500
%%sep 1 1 500

